src/images/parallax-background.svg

<svg width="1920" height="4786" viewBox="0 0 1920 4786" fill="none" xmlns="http://www.w3.org/2000/svg">
<g clip-path="url(#clip0)">
<g opacity="0.2" filter="url(#filter0_f)">
<path d="M-155.542 920.806L47.7915 1086.08L-10.2461 1292.69L-155.542 920.806Z" fill="#7163DE"/>
<path d="M-155.543 920.807L-54.4277 861.245L156.436 1020.81L47.7904 1086.08L-155.543 920.807Z" fill="#A29AFD"/>
<path d="M47.7912 1086.08L156.436 1020.81L92.4899 1230.24L-10.2464 1292.69L47.7912 1086.08Z" fill="#4433C8"/>
</g>
<g opacity="0.2" filter="url(#filter1_f)">
<path d="M1759.46 3104.81L1962.79 3270.08L1904.75 3476.69L1759.46 3104.81Z" fill="#7163DE"/>
<path d="M1759.46 3104.81L1860.57 3045.24L2071.44 3204.81L1962.79 3270.08L1759.46 3104.81Z" fill="#A29AFD"/>
<path d="M1962.79 3270.08L2071.44 3204.81L2007.49 3414.24L1904.75 3476.69L1962.79 3270.08Z" fill="#4433C8"/>
</g>
<g opacity="0.2" filter="url(#filter2_f)">
<g clip-path="url(#clip1)">
<path d="M1751.64 2001.28L1738.8 1967.59L1755.76 1844.42L1769.46 1878.71L1751.64 2001.28Z" fill="#D281F9"/>
<path d="M1769.45 1878.71L1755.76 1844.42L1813.82 1862.3L1827.82 1896.13L1769.45 1878.71Z" fill="#B228F1"/>
<path d="M1869.28 1725.71L1966.54 1786.9L2038.41 1688.09L2102.86 1731.86L1751.64 2001.28L1769.45 1878.71L1827.82 1896.13L1869.28 1725.71Z" fill="#C45AF4"/>
<path d="M1869.28 1725.71L1853.87 1691.32L1950.81 1753.36L1966.54 1786.9L1869.28 1725.71Z" fill="#B228F1"/>
<path d="M1827.83 1896.13L1813.82 1862.3L1853.87 1691.32L1869.28 1725.71L1827.83 1896.13Z" fill="#D281F9"/>
</g>
</g>
<g opacity="0.2" filter="url(#filter3_f)">
<g clip-path="url(#clip2)">
<path d="M5.20759 4021.24L35.413 3999.79L145.217 4051.72L115.223 4074.37L5.20759 4021.24Z" fill="#D281F9"/>
<path d="M115.224 4074.38L145.218 4051.73L113.027 4122.92L83.6245 4145.59L115.224 4074.38Z" fill="#B228F1"/>
<path d="M48.1046 3914.64L5.20783 4021.24L115.224 4074.38L83.6246 4145.59L-244.003 3847.92L-120.217 3843.64L-126.974 3904.18L48.1046 3914.64Z" fill="#C45AF4"/>
<path d="M48.1045 3914.64L79.2043 3893.36L35.4131 3999.79L5.20776 4021.24L48.1045 3914.64Z" fill="#B228F1"/>
<path d="M-126.974 3904.18L-96.1744 3884.38L79.2044 3893.37L48.1045 3914.64L-126.974 3904.18Z" fill="#D281F9"/>
</g>
</g>
<g opacity="0.2" filter="url(#filter4_f)">
<g clip-path="url(#clip3)">
<path d="M2161.78 136.906L1774.41 423.922L1867.93 84.7505L2161.78 136.906Z" fill="#1C82F9"/>
<path d="M1774.41 423.922L1724.37 353.098L1809.95 10.9555L1867.93 84.7497L1774.41 423.922Z" fill="#003C85"/>
<path d="M1867.93 84.7498L1809.95 10.9556L2106.55 71.516L2161.78 136.906L1867.93 84.7498Z" fill="#0056BD"/>
</g>
</g>
<g opacity="0.2" filter="url(#filter5_f)">
<g clip-path="url(#clip4)">
<path d="M144.863 2391.26L-66.6511 2676.75L-73.5018 2417.55L144.863 2391.26Z" fill="#1C82F9"/>
<path d="M-73.5024 2417.55L-130.219 2377.97L91.8894 2357.01L144.862 2391.26L-73.5024 2417.55Z" fill="#0056BD"/>
</g>
</g>
</g>
<defs>
<filter id="filter0_f" x="-277" y="796.139" width="523.514" height="528.86" filterUnits="userSpaceOnUse" color-interpolation-filters="sRGB">
<feFlood flood-opacity="0" result="BackgroundImageFix"/>
<feBlend mode="normal" in="SourceGraphic" in2="BackgroundImageFix" result="shape"/>
<feGaussianBlur stdDeviation="7.5" result="effect1_foregroundBlur"/>
</filter>
<filter id="filter1_f" x="1638" y="2980.14" width="523.514" height="528.86" filterUnits="userSpaceOnUse" color-interpolation-filters="sRGB">
<feFlood flood-opacity="0" result="BackgroundImageFix"/>
<feBlend mode="normal" in="SourceGraphic" in2="BackgroundImageFix" result="shape"/>
<feGaussianBlur stdDeviation="7.5" result="effect1_foregroundBlur"/>
</filter>
<filter id="filter2_f" x="1725" y="1615.56" width="395.851" height="433.437" filterUnits="userSpaceOnUse" color-interpolation-filters="sRGB">
<feFlood flood-opacity="0" result="BackgroundImageFix"/>
<feBlend mode="normal" in="SourceGraphic" in2="BackgroundImageFix" result="shape"/>
<feGaussianBlur stdDeviation="5" result="effect1_foregroundBlur"/>
</filter>
<filter id="filter3_f" x="-199" y="3798.8" width="415.575" height="375.194" filterUnits="userSpaceOnUse" color-interpolation-filters="sRGB">
<feFlood flood-opacity="0" result="BackgroundImageFix"/>
<feBlend mode="normal" in="SourceGraphic" in2="BackgroundImageFix" result="shape"/>
<feGaussianBlur stdDeviation="5" result="effect1_foregroundBlur"/>
</filter>
<filter id="filter4_f" x="1696" y="-15.002" width="492.634" height="526.327" filterUnits="userSpaceOnUse" color-interpolation-filters="sRGB">
<feFlood flood-opacity="0" result="BackgroundImageFix"/>
<feBlend mode="normal" in="SourceGraphic" in2="BackgroundImageFix" result="shape"/>
<feGaussianBlur stdDeviation="7.5" result="effect1_foregroundBlur"/>
</filter>
<filter id="filter5_f" x="-148" y="2339" width="324.019" height="355.597" filterUnits="userSpaceOnUse" color-interpolation-filters="sRGB">
<feFlood flood-opacity="0" result="BackgroundImageFix"/>
<feBlend mode="normal" in="SourceGraphic" in2="BackgroundImageFix" result="shape"/>
<feGaussianBlur stdDeviation="7.5" result="effect1_foregroundBlur"/>
</filter>
<clipPath id="clip0">
<rect width="1920" height="4786" fill="white"/>
</clipPath>
<clipPath id="clip1">
<rect x="2066.02" y="2039" width="333.389" height="376.406" transform="rotate(-173.159 2066.02 2039)" fill="white"/>
</clipPath>
<clipPath id="clip2">
<rect x="-169.164" y="4164" width="333.389" height="376.406" transform="rotate(-93.411 -169.164 4164)" fill="white"/>
</clipPath>
<clipPath id="clip3">
<rect x="2173.63" y="87.6582" width="420.331" height="374.695" transform="rotate(103.53 2173.63 87.6582)" fill="white"/>
</clipPath>
<clipPath id="clip4">
<rect x="142.648" y="2354" width="309.766" height="276.135" transform="rotate(86.6001 142.648 2354)" fill="white"/>
</clipPath>
</defs>
</svg>

<svg width="1920" height="4786" fill="none" xmlns="http://www.w3.org/2000/svg"><g clip-path="url(#clip0)"><g opacity=".2" filter="url(#filter0_f)"><path d="M-155.542 920.806L47.792 1086.08l-58.038 206.61-145.296-371.884z" fill="#7163DE"/><path d="M-155.543 920.807l101.115-59.562 210.864 159.565-108.646 65.27-203.333-165.273z" fill="#A29AFD"/><path d="M47.791 1086.08l108.645-65.27-63.946 209.43-102.736 62.45 58.037-206.61z" fill="#4433C8"/></g><g opacity=".2" filter="url(#filter1_f)"><path d="M1759.46 3104.81l203.33 165.27-58.04 206.61-145.29-371.88z" fill="#7163DE"/><path d="M1759.46 3104.81l101.11-59.57 210.87 159.57-108.65 65.27-203.33-165.27z" fill="#A29AFD"/><path d="M1962.79 3270.08l108.65-65.27-63.95 209.43-102.74 62.45 58.04-206.61z" fill="#4433C8"/></g><g opacity=".2" filter="url(#filter2_f)"><g clip-path="url(#clip1)"><path d="M1751.64 2001.28l-12.84-33.69 16.96-123.17 13.7 34.29-17.82 122.57z" fill="#D281F9"/><path d="M1769.45 1878.71l-13.69-34.29 58.06 17.88 14 33.83-58.37-17.42z" fill="#B228F1"/><path d="M1869.28 1725.71l97.26 61.19 71.87-98.81 64.45 43.77-351.22 269.42 17.81-122.57 58.37 17.42 41.46-170.42z" fill="#C45AF4"/><path d="M1869.28 1725.71l-15.41-34.39 96.94 62.04 15.73 33.54-97.26-61.19z" fill="#B228F1"/><path d="M1827.83 1896.13l-14.01-33.83 40.05-170.98 15.41 34.39-41.45 170.42z" fill="#D281F9"/></g></g><g opacity=".2" filter="url(#filter3_f)"><g clip-path="url(#clip2)"><path d="M5.208 4021.24l30.205-21.45 109.804 51.93-29.994 22.65-110.015-53.13z" fill="#D281F9"/><path d="M115.224 4074.38l29.994-22.65-32.191 71.19-29.403 22.67 31.6-71.21z" fill="#B228F1"/><path d="M48.105 3914.64l-42.897 106.6 110.016 53.14-31.6 71.21-327.627-297.67 123.786-4.28-6.757 60.54 175.079 10.46z" fill="#C45AF4"/><path d="M48.105 3914.64l31.1-21.28-43.792 106.43-30.205 21.45 42.897-106.6z" fill="#B228F1"/><path d="M-126.974 3904.18l30.8-19.8 175.378 8.99-31.1 21.27-175.078-10.46z" fill="#D281F9"/></g></g><g opacity=".2" filter="url(#filter4_f)"><g clip-path="url(#clip3)"><path d="M2161.78 136.906l-387.37 287.016 93.52-339.172 293.85 52.156z" fill="#1C82F9"/><path d="M1774.41 423.922l-50.04-70.824 85.58-342.143 57.98 73.795-93.52 339.172z" fill="#003C85"/><path d="M1867.93 84.75l-57.98-73.794 296.6 60.56 55.23 65.39-293.85-52.156z" fill="#0056BD"/></g></g><g opacity=".2" filter="url(#filter5_f)"><g clip-path="url(#clip4)"><path d="M144.863 2391.26l-211.514 285.49-6.85-259.2 218.364-26.29z" fill="#1C82F9"/><path d="M-73.502 2417.55l-56.717-39.58 222.108-20.96 52.973 34.25-218.364 26.29z" fill="#0056BD"/></g></g></g><defs><filter id="filter0_f" x="-277" y="796.139" width="523.514" height="528.86" filterUnits="userSpaceOnUse" color-interpolation-filters="sRGB"><feFlood flood-opacity="0" result="BackgroundImageFix"/><feBlend in="SourceGraphic" in2="BackgroundImageFix" result="shape"/><feGaussianBlur stdDeviation="7.5" result="effect1_foregroundBlur"/></filter><filter id="filter1_f" x="1638" y="2980.14" width="523.514" height="528.86" filterUnits="userSpaceOnUse" color-interpolation-filters="sRGB"><feFlood flood-opacity="0" result="BackgroundImageFix"/><feBlend in="SourceGraphic" in2="BackgroundImageFix" result="shape"/><feGaussianBlur stdDeviation="7.5" result="effect1_foregroundBlur"/></filter><filter id="filter2_f" x="1725" y="1615.56" width="395.851" height="433.437" filterUnits="userSpaceOnUse" color-interpolation-filters="sRGB"><feFlood flood-opacity="0" result="BackgroundImageFix"/><feBlend in="SourceGraphic" in2="BackgroundImageFix" result="shape"/><feGaussianBlur stdDeviation="5" result="effect1_foregroundBlur"/></filter><filter id="filter3_f" x="-199" y="3798.8" width="415.575" height="375.194" filterUnits="userSpaceOnUse" color-interpolation-filters="sRGB"><feFlood flood-opacity="0" result="BackgroundImageFix"/><feBlend in="SourceGraphic" in2="BackgroundImageFix" result="shape"/><feGaussianBlur stdDeviation="5" result="effect1_foregroundBlur"/></filter><filter id="filter4_f" x="1696" y="-15.002" width="492.634" height="526.327" filterUnits="userSpaceOnUse" color-interpolation-filters="sRGB"><feFlood flood-opacity="0" result="BackgroundImageFix"/><feBlend in="SourceGraphic" in2="BackgroundImageFix" result="shape"/><feGaussianBlur stdDeviation="7.5" result="effect1_foregroundBlur"/></filter><filter id="filter5_f" x="-148" y="2339" width="324.019" height="355.597" filterUnits="userSpaceOnUse" color-interpolation-filters="sRGB"><feFlood flood-opacity="0" result="BackgroundImageFix"/><feBlend in="SourceGraphic" in2="BackgroundImageFix" result="shape"/><feGaussianBlur stdDeviation="7.5" result="effect1_foregroundBlur"/></filter><clipPath id="clip0"><path fill="#fff" d="M0 0h1920v4786H0z"/></clipPath><clipPath id="clip1"><path transform="rotate(-173.159 2066.02 2039)" fill="#fff" d="M2066.02 2039h333.389v376.406H2066.02z"/></clipPath><clipPath id="clip2"><path transform="rotate(-93.411 -169.164 4164)" fill="#fff" d="M-169.164 4164h333.389v376.406h-333.389z"/></clipPath><clipPath id="clip3"><path transform="rotate(103.53 2173.63 87.658)" fill="#fff" d="M2173.63 87.658h420.331v374.695H2173.63z"/></clipPath><clipPath id="clip4"><path transform="rotate(86.6 142.648 2354)" fill="#fff" d="M142.648 2354h309.766v276.135H142.648z"/></clipPath></defs></svg>
